src/assets/icons/shop.svg

<svg fill="none" height="40" viewBox="0 0 40 40" width="40" xmlns="http://www.w3.org/2000/svg"><path d="m31.624 15.6377c-.0862-.9957-.5438-1.9226-1.2819-2.5965-.7381-.674-1.7026-1.0456-2.7021-1.0412h-1.64v-2c0-1.5913-.6321-3.11742-1.7573-4.24264-1.1253-1.12522-2.6514-1.75736-4.2427-1.75736s-3.1174.63214-4.2426 1.75736-1.7574 2.65134-1.7574 4.24264v2h-1.64c-.9995-.0044-1.9641.3673-2.70223 1.0413-.73809.6741-1.19564 1.6011-1.28174 2.5969l-1.3555 14.9092c-.0629.692.01912 1.3894.24081 2.0479s.57818 1.2636 1.04675 1.7766c.46857.5131 1.03892.9228 1.67467 1.2031.63574.2803 1.32294.4251 2.01774.425h15.9995c.6948.0001 1.382-.1447 2.0178-.425.6357-.2803 1.2061-.69 1.6747-1.2031.4685-.513.825-1.1181 1.0467-1.7766s.3037-1.3559.2408-2.0479zm-15.624-5.6377c0-1.06087.4215-2.07828 1.1716-2.82843.7501-.75014 1.7676-1.17157 2.8284-1.17157 1.0609 0 2.0783.42143 2.8285 1.17157.7501.75015 1.1715 1.76756 1.1715 2.82843v2h-8zm14.2148 23.0229c-.2797.3094-.6216.5563-1.0032.7247-.3816.1683-.7945.2543-1.2116.2524h-15.9995c-.4169 0-.8292-.0869-1.2107-.2551-.3814-.1682-.7237-.4141-1.00478-.722-.28112-.3078-.49499-.6709-.62797-1.0661-.13297-.3951-.18212-.8136-.14432-1.2288l1.35547-14.9087c.043-.4979.2717-.9615.6407-1.2985.3691-.3371.8514-.523 1.3511-.5208h15.28c.4997-.0023.982.1835 1.351.5205s.5977.8004.6407 1.2983l1.3556 14.9092c.0401.4153-.0081.8345-.1412 1.2299-.1331.3955-.3482.7584-.6313 1.065zm-4.2148-16.0229c0 1.5913-.6321 3.1174-1.7573 4.2426-1.1253 1.1253-2.6514 1.7574-4.2427 1.7574s-3.1174-.6321-4.2426-1.7574c-1.1252-1.1252-1.7574-2.6513-1.7574-4.2426 0-.2652.1054-.5196.2929-.7071.1876-.1875.4419-.2929.7071-.2929s.5196.1054.7071.2929c.1876.1875.2929.4419.2929.7071 0 1.0609.4215 2.0783 1.1716 2.8284.7501.7502 1.7676 1.1716 2.8284 1.1716 1.0609 0 2.0783-.4214 2.8285-1.1716.7501-.7501 1.1715-1.7675 1.1715-2.8284 0-.2652.1054-.5196.2929-.7071.1876-.1875.4419-.2929.7071-.2929s.5196.1054.7071.2929c.1876.1875.2929.4419.2929.7071z" fill="#222"/></svg>

<svg width="40" height="40" viewBox="0 0 40 40" fill="none" xmlns="http://www.w3.org/2000/svg">
<path d="M31.624 15.6377C31.5378 14.642 31.0802 13.7151 30.3421 13.0412C29.604 12.3672 28.6395 11.9956 27.64 12H26V10C26 8.4087 25.3679 6.88258 24.2427 5.75736C23.1174 4.63214 21.5913 4 20 4C18.4087 4 16.8826 4.63214 15.7574 5.75736C14.6322 6.88258 14 8.4087 14 10V12H12.36C11.3605 11.9956 10.3959 12.3673 9.65777 13.0413C8.91968 13.7154 8.46213 14.6424 8.37603 15.6382L7.02053 30.5474C6.95763 31.2394 7.03965 31.9368 7.26134 32.5953C7.48303 33.2538 7.83952 33.8589 8.30809 34.3719C8.77666 34.885 9.34701 35.2947 9.98276 35.575C10.6185 35.8553 11.3057 36.0001 12.0005 36H28C28.6948 36.0001 29.382 35.8553 30.0178 35.575C30.6535 35.2947 31.2239 34.885 31.6925 34.3719C32.161 33.8589 32.5175 33.2538 32.7392 32.5953C32.9609 31.9368 33.0429 31.2394 32.98 30.5474L31.624 15.6377ZM16 10C16 8.93913 16.4215 7.92172 17.1716 7.17157C17.9217 6.42143 18.9392 6 20 6C21.0609 6 22.0783 6.42143 22.8285 7.17157C23.5786 7.92172 24 8.93913 24 10V12H16V10ZM30.2148 33.0229C29.9351 33.3323 29.5932 33.5792 29.2116 33.7476C28.83 33.9159 28.4171 34.0019 28 34H12.0005C11.5836 34 11.1713 33.9131 10.7898 33.7449C10.4084 33.5767 10.0661 33.3308 9.78502 33.0229C9.5039 32.7151 9.29003 32.352 9.15705 31.9568C9.02408 31.5617 8.97493 31.1432 9.01273 30.728L10.3682 15.8193C10.4112 15.3214 10.6399 14.8578 11.0089 14.5208C11.378 14.1837 11.8603 13.9978 12.36 14H27.64C28.1397 13.9977 28.622 14.1835 28.991 14.5205C29.36 14.8575 29.5887 15.3209 29.6317 15.8188L30.9873 30.728C31.0274 31.1433 30.9792 31.5625 30.8461 31.9579C30.713 32.3534 30.4979 32.7163 30.2148 33.0229Z" fill="#222222"/>
</svg>
